X: 17821
T: Hop-tu-Naa
R: slide
M: 12/8
K: Gmajor
d|d2dB2G|B2dd3|e2dcBA|G2GG2d|
d2dB2G|B2dd3|e2dcBA|G2GG2d||
d2ed2B|d2ed2B|dded2c|B2AB3|
d2ed2B|d2ed2B|dded2c|B2AG2||

